X:1
T:Gilderoy
M:4/4
L:1/8
K:C
 E2| A2 AB cB cd| ef ec d2 cd| ed cA ^GA BA| ^G2 E2 E2| E2| A2 AB cB cd|\
 ef ec d2 cd| ea ^ga ed cB| c2 A2 A2|| ef| g3 ag fe f| gf ec d2 cd|\
 ed cA ^GA BA| ^G2 E2 E2| E2| A2 AB cB cd| ef ec d2 cd| ea ^ga ed cB|\
 c2 A2 A2||
